icons/Adwaita-gray/scalable/places/folder-music.svg

<?xml version="1.0" encoding="UTF-8"?>
<svg height="128px" viewBox="0 0 128 128" width="128px" xmlns="http://www.w3.org/2000/svg" xmlns:xlink="http://www.w3.org/1999/xlink">
    <linearGradient id="a" gradientTransform="matrix(0.45451 0 0 0.455522 -1210.292114 616.172607)" gradientUnits="userSpaceOnUse" x1="2689.251953" x2="2918.069824" y1="-1106.802979" y2="-1106.802979">
        <stop offset="0" stop-color="#62a0ea"/>
        <stop offset="0.0576991" stop-color="#afd4ff"/>
        <stop offset="0.122204" stop-color="#62a0ea"/>
        <stop offset="0.873306" stop-color="#62a0ea"/>
        <stop offset="0.955997" stop-color="#c0d5ea"/>
        <stop offset="1" stop-color="#62a0ea"/>
    </linearGradient>
    <path d="m 21.976562 12 c -5.527343 0 -9.976562 4.460938 -9.976562 10 v 86.03125 c 0 5.542969 4.449219 10 9.976562 10 h 84.042969 c 5.53125 0 9.980469 -4.457031 9.980469 -10 v -72.085938 c 0 -6.628906 -5.359375 -12 -11.972656 -12 h -46.027344 c -2.453125 0 -4.695312 -1.386718 -5.796875 -3.582031 l -1.503906 -2.992187 c -1.65625 -3.292969 -5.019531 -5.371094 -8.699219 -5.371094 z m 0 0" fill="#438de6"/>
    <path d="m 65.976562 36 c -2.746093 0 -5.226562 1.101562 -7.027343 2.890625 c -2.273438 2.253906 -5.382813 5.109375 -8.632813 5.109375 h -28.339844 c -5.527343 0 -9.976562 4.460938 -9.976562 10 v 54.03125 c 0 5.542969 4.449219 10 9.976562 10 h 84.042969 c 5.53125 0 9.980469 -4.457031 9.980469 -10 v -62.03125 c 0 -5.539062 -4.449219 -10 -9.980469 -10 z m 0 0" fill="url(#a)"/>
    <path d="m 65.976562 32 c -2.746093 0 -5.226562 1.101562 -7.027343 2.890625 c -2.273438 2.253906 -5.382813 5.109375 -8.632813 5.109375 h -28.339844 c -5.527343 0 -9.976562 4.460938 -9.976562 10 v 55.976562 c 0 5.539063 4.449219 10 9.976562 10 h 84.042969 c 5.53125 0 9.980469 -4.460937 9.980469 -10 v -63.976562 c 0 -5.539062 -4.449219 -10 -9.980469 -10 z m 0 0" fill="#a4caee"/>
    <path d="m 66 64 c -3.289062 0 -6 2.710938 -6 6 v 8.679688 c -0.914062 -0.429688 -1.929688 -0.679688 -3 -0.679688 c -3.84375 0 -7 3.15625 -7 7 s 3.15625 7 7 7 c 3.828125 0 6.984375 -3.140625 7 -6.96875 c 0 -0.007812 0 -0.023438 0 -0.03125 v -15 c 0 -1.125 0.875 -2 2 -2 h 8 c 1.125 0 2 0.875 2 2 v 8.679688 c -0.914062 -0.429688 -1.929688 -0.679688 -3 -0.679688 c -3.84375 0 -7 3.15625 -7 7 s 3.15625 7 7 7 s 7 -3.15625 7 -7 v -15 c 0 -3.289062 -2.710938 -6 -6 -6 z m -9 18 c 1.679688 0 3 1.320312 3 3 v 0.03125 c -0.015625 1.664062 -1.328125 2.96875 -3 2.96875 c -1.679688 0 -3 -1.320312 -3 -3 s 1.320312 -3 3 -3 z m 16 0 c 1.679688 0 3 1.320312 3 3 s -1.320312 3 -3 3 s -3 -1.320312 -3 -3 s 1.320312 -3 3 -3 z m 0 0" fill="#438de6"/>
</svg>

<svg width="128" height="128" viewBox="0 0 128 128" fill="none" xmlns="http://www.w3.org/2000/svg">
<path d="M21.9766 12C16.4492 12 12 16.4609 12 22V108.031C12 113.574 16.4492 118.031 21.9766 118.031H106.02C111.551 118.031 116 113.574 116 108.031V35.9453C116 29.3164 110.641 23.9453 104.027 23.9453H58C55.5469 23.9453 53.3047 22.5586 52.2031 20.3633L50.6992 17.3711C49.043 14.0781 45.6797 12 42 12H21.9766Z" fill="#77767B"/>
<path d="M65.9766 36C63.2305 36 60.75 37.1016 58.9492 38.8906C56.6758 41.1445 53.5664 44 50.3164 44H21.9766C16.4492 44 12 48.4609 12 54V108.031C12 113.574 16.4492 118.031 21.9766 118.031H106.02C111.551 118.031 116 113.574 116 108.031V46C116 40.4609 111.551 36 106.02 36H65.9766Z" fill="url(#paint0_linear_25_31)"/>
<path d="M65.9766 32C63.2305 32 60.75 33.1016 58.9492 34.8906C56.6758 37.1445 53.5664 40 50.3164 40H21.9766C16.4492 40 12 44.4609 12 50V105.977C12 111.516 16.4492 115.977 21.9766 115.977H106.02C111.551 115.977 116 111.516 116 105.977V42C116 36.4609 111.551 32 106.02 32H65.9766Z" fill="#C0BFBC"/>
<path d="M66 64C62.7109 64 60 66.7109 60 70V78.6797C59.0859 78.25 58.0703 78 57 78C53.1562 78 50 81.1562 50 85C50 88.8438 53.1562 92 57 92C60.8281 92 63.9844 88.8594 64 85.0312C64 85.0234 64 85.0078 64 85V70C64 68.875 64.875 68 66 68H74C75.125 68 76 68.875 76 70V78.6797C75.0859 78.25 74.0703 78 73 78C69.1562 78 66 81.1562 66 85C66 88.8438 69.1562 92 73 92C76.8438 92 80 88.8438 80 85V70C80 66.7109 77.2891 64 74 64H66ZM57 82C58.6797 82 60 83.3203 60 85V85.0312C59.9844 86.6953 58.6719 88 57 88C55.3203 88 54 86.6797 54 85C54 83.3203 55.3203 82 57 82ZM73 82C74.6797 82 76 83.3203 76 85C76 86.6797 74.6797 88 73 88C71.3203 88 70 86.6797 70 85C70 83.3203 71.3203 82 73 82Z" fill="#77767B"/>
<defs>
<linearGradient id="paint0_linear_25_31" x1="11.9998" y1="112" x2="116" y2="112" gradientUnits="userSpaceOnUse">
<stop stop-color="#9A9996"/>
<stop offset="0.0576991" stop-color="#F6F5F4"/>
<stop offset="0.122204" stop-color="#9A9996"/>
<stop offset="0.873306" stop-color="#9A9996"/>
<stop offset="0.955997" stop-color="#F6F5F4"/>
<stop offset="1" stop-color="#9A9996"/>
</linearGradient>
</defs>
</svg>
